X:708
T:Mrs. James Campbell
R:Reel
B:The Athole Collection
M:C|
L:1/8
K:F
e|f2 cf AFcA|dBcA Ggga|fcfa gefd|cABG F/F/F ~F:|
B|AFAc defd|cAAF EFGc|AFAc defd|cABG F/F/F ~FB|
AFAc defd|cAAF EFGc|AcFc defd|cABG F/F/F ~F||

